X:1
T:Title
%%score { ( 1 3 ) | 2 }
L:1/8
Q:1/4=100
M:4/4
K:F
V:1 treble nm="Grand Piano"
V:3 treble 
V:2 bass 
V:1
 A2 F>G A2 c2 | A2 F>G A3 A | [EG]2 [CE]>[DF] [EG]2 [Ec]2 | =B2 c>d [Ec]4 | c2 A>B c2 c2 | %5
w: W.~A.~Ogden * * * *|||||
 [Fd]2 [DB]>[Ec] [Fd]3 [Fd] | c2 c>c c2 F2 | [DG]2 F>E F4 | z2 E>D C2 A>c | z2 E>D C2 A>c | %10
w: |||||
 z2 E>D C2 B>d | G2 z2 z4 |[M:3/4] A6 |[M:1/4] c>c |[M:4/4] B6 z2 | c6 z2 | %16
w: ||||||
[M:7/8] F-F-F- F- F3[Q:1/4=99][Q:1/4=97][Q:1/4=96][Q:1/4=94][Q:1/4=93][Q:1/4=91][Q:1/4=90][Q:1/4=88][Q:1/4=87][Q:1/4=85][Q:1/4=84][Q:1/4=82][Q:1/4=81][Q:1/4=79][Q:1/4=78][Q:1/4=76] |] %17
w: |
V:2
 [F,CF]2 [F,A,]>[F,B,F] [F,CF]2 [F,A,F]2 | [F,CF]2 [F,A,]>[F,B,F] [F,CF]3 [F,CF] | %2
 [C,C]2 [C,G,]>[C,G,] [C,C]2 [C,G,]2 | [G,D]2 [G,E]>[G,F][K:bass] [C,G,]4 | %4
 [F,A,F]2 [F,F]>[F,G,F] [F,A,F]2 [F,A,F]2 | [B,,B,]2 [B,,F,]>[B,,F,] [B,,B,]3 [B,,B,] | %6
 [F,A,F]2 [F,A,F]>[F,A,F] [F,A,F]2 [F,A,C]2 | [B,,B,]2 [C,A,C]>[C,G,C] [F,A,C]4 | %8
 [F,A,]2 [F,C]>[F,B,] [F,A,]2 z2 | [F,A,]2 [F,C]>[F,B,] [F,A,]2 z2 | %10
 [C,B,]2 [C,G,]>[C,F,] [C,E,]2 z2 | [C,B,]2 [C,G,]>[C,F,] [C,E,]2 z2 | %12
[M:3/4] [F,F]2 [F,G,]>[F,G,] [F,C]2 |[M:1/4] z2 |[M:4/4] B,,2 B,,>B,, B,,2 [B,,B,]2 | %15
 [C,A,]2 [C,G,]>[C,A,] [C,B,]2 [C,B,C]2 |[M:7/8] [F,A,C]2 [F,B,]>[F,B,] [F,A,]3 |] %17
V:3
 x8 | x8 | x8 | x8 | x8 | x8 | x8 | x8 | F6 z2 | F6 z2 | F6 z2 | c2- [Ec-]>[Dc-] [Cc]2 z2 | %12
[M:3/4] z2 E>E _E2 |[M:1/4] x2 |[M:4/4] [B,D]2 [DF]>[C_E] [B,D]2 [Fd]2 | F2 E>F G2 E>E | %16
[M:7/8] z2 D>D C3 |] %17

